X: 226
T: Bert Jamieson's Set Tune No.3
B: australian dance tunes
M:4/4
L:1/8
Q: 1/4=100
K:G
V:1 
|:B,2 D2 E2 F2|G6 D2|B,2 D2 E2 D2|B6 c2|B2 A2 E3 F|A2 G2 F2 (3EFE|D2 D2 E2 F2|G8:|!
B2 d2 c2 A2|B2 G2 G2 EF|G2 F2 E2 B,2|D4 B,2 D2|c6 B2|d2 B2 G2 EF|G2 E2 F2 G2| A6 GA|!
B2 d2 c2 A2|G2 B2 D4|E2 G2 F2 E2|D6 B2|c6 B2|d2 B2 G2 GG|G2 F2 E2 F2|G8||!
d6 e2|d2 B2 A2 G2|E6 G2|F2 E2 D2 GA|B2 d2 d4|e4 d4|A8|A8|!
d6 e2|d2 B2 A2 G2|E6 G2|F2 E2 D2 GA|B2 d2 c2 B2|A2 E2 F2 A2|G4 G4|G8||
% abcbook-tune_id 62a07850e7c8e4192e4a1ab6


% abcbook-boost 0
% abcbook-tablature 
% abcbook-transpose 
% abcbook-lastupdated 1654683750414
% abcbook-soundfonts 
% abcbook-repeats 1


